packages/foundations/assets/icons/functional/images/maps/location_pin_12_filled.svg

<svg width="12" height="12" viewBox="0 0 12 12" fill="none" xmlns="http://www.w3.org/2000/svg">
<g clip-path="url(#clip0_2213_5049)">
<path fill-rule="evenodd" clip-rule="evenodd" d="M3 10.2C3 9.88129 3.3 9.60001 3.6 9.60001H8.4C8.7375 9.60001 9 9.86251 9 10.2C9 10.5375 8.7 10.8 8.4 10.8H3.6C3.3 10.8 3 10.5375 3 10.2ZM6 1.20001C7.66875 1.20001 9 2.41876 9 3.99376C9 4.55626 8.8125 5.13751 8.45625 5.68126L6.50625 8.71876C6.375 8.90626 6.1875 9.00001 6 9.00001C5.8125 9.00001 5.625 8.90626 5.49375 8.71876L3.54375 5.68126C3.1875 5.13751 3 4.55626 3 3.99376C3 2.41876 4.33125 1.20001 6 1.20001ZM6 3.00001C5.34375 3.00001 4.8 3.54804 4.8 4.20946C4.8 4.87088 5.34375 5.40001 6 5.40001C6.65625 5.40001 7.2 4.87088 7.2 4.20946C7.2 3.54804 6.65625 3.00001 6 3.00001Z" fill="#1A1C1F"/>
</g>
<defs>
<clipPath id="clip0_2213_5049">
<rect width="12" height="12" fill="white"/>
</clipPath>
</defs>
</svg>

<svg xmlns="http://www.w3.org/2000/svg" width="12" height="12" fill="none"><g clip-path="url(#a)"><path fill="#1A1C1F" fill-rule="evenodd" d="M3 10.2c0-.319.3-.6.6-.6h4.8c.338 0 .6.263.6.6 0 .338-.3.6-.6.6H3.6c-.3 0-.6-.263-.6-.6m3-9c1.669 0 3 1.219 3 2.794 0 .562-.187 1.144-.544 1.687L6.506 8.72A.62.62 0 0 1 6 9a.62.62 0 0 1-.506-.281L3.544 5.68C3.187 5.138 3 4.556 3 3.994 3 2.419 4.331 1.2 6 1.2M6 3c-.656 0-1.2.548-1.2 1.21 0 .66.544 1.19 1.2 1.19s1.2-.53 1.2-1.19C7.2 3.547 6.656 3 6 3" clip-rule="evenodd"/></g><defs><clipPath id="a"><path fill="#fff" d="M0 0h12v12H0z"/></clipPath></defs></svg>
